X:0747
T:Lord Spencer's Strathspey.
M:C
L:1/8
Q:1/4=120
I: :: ||
Z:Jack Campin * www.campin.me.uk * 2009
K:D
f|d>A F/A/F/A/ dAFf|d>A B/A/G/F/ {F}E2 Ef |dA F/A/F/A/ dBAF  |GEAF    D2 D :|
c|d2  fa       gece|fdgf         {f}e2 e>c|d2 fa       gfed  |Agfe {e}d2 d>A|
  d2  fa       gece|fdgf         {f}e2 e>c|dB`AF       A>Bd>B|AFGE    D2 D |]
<end>
<start>
